X:1
T:Title
%%score { ( 1 3 5 ) | ( 2 4 ) }
L:1/8
M:4/4
K:A
V:1 treble nm="Grand Piano"
V:3 treble 
V:5 treble 
V:2 bass 
V:4 bass 
V:1
 z4 z2[Q:1/4=100] E>E | [CA]>[CA] [Ec]>[DB] [CA]>E C>E | [CA]>[CA] [Ec]>[DB] [CA]2 G>A | %3
 B>B d>c B>A G>A | B>B d>c B2 E>E | [CA]>[CA] [Ec]>[DB] [CA]>E C>E | %6
 [CA]>[CA] [Ec]>[DB] [CA]2 c>d | e>e e>e [Ge]>[Gd] [EGc]>[DGB] | [CEA]6 z2 | %9
 [CEA]4[K:bass][K:treble] z4 | [EAc]4 z4 | [B,Ge]4[K:bass][K:treble] z4 | %12
 [EG]2 [A,^DF]2[K:bass] (3[E,G,E]-[E,F,G,-E-][E,G,E]- [E,G,E]2 | [CEA]4[K:treble] z4 | [EAc]4 z4 | %15
 (3z[K:bass] C,C, z z/[K:treble] e/ e>d d>[FBd] |[M:3/4] [EAc]>[EAc] [EGc]>[DGB] [CEA]2 |] %17
V:2
 z4 z2 E,>E, | [A,,E,]>[A,,E,] [A,,E,]>[A,,E,] [A,,E,]>E, C,>E, | %2
 [A,,E,]>[A,,E,] [E,G,]>[E,G,] [A,,A,]2 [E,B,E]>[E,CE] | %3
 [E,E]>[E,DE] [E,B,E]>[E,A,E] [E,G,E]>[E,CE] [E,B,E]>[E,CE] | %4
 [E,G,E]>[E,G,E] [E,B,E]>[E,A,E] [E,G,E]2 E,>E, | %5
 [A,,E,]>[A,,E,] [A,,E,]>[A,,E,] [A,,E,]>E, C,>E, | %6
 [A,,E,]>[A,,E,] [E,G,]>[E,G,] [A,,A,]2[K:treble] [A,E]>[A,B,E] | %7
 [A,CE]>[A,CE] [A,CA]>[A,CA][K:bass] [E,B,]>[E,B,] E,>E, | z z/ E,/ C,>E, A,,2 z2 | %9
 (3[A,,,A,,]A,,,A,,, A,,,>[A,,,A,,] [A,,,A,,]>[A,,,A,,] [A,,,A,,]2 | %10
 (3[A,,A,]A,,A,, A,,>[A,,A,] [A,,A,]>[A,,A,] [A,,A,]2 | %11
 (3[E,,E,]E,,E,, E,,>[E,,E,B,G] [E,,E,B,G]>[E,,E,] [E,,E,]>[A,,A,] | %12
 [B,,B,]2 [B,,,B,,]2 (3E,,F,,E,, (3D,,C,,A,,, | %13
 (3[A,,,A,,]A,,,A,,, A,,,>[A,,,A,,] [A,,,A,,]>[A,,,A,,] [A,,,A,,]2 | %14
 (3[A,,A,]A,,A,, A,,>[A,,A,] [A,,A,]>[A,,A,] [A,,A,]2 | %15
 (3[C,,C,]C,,C,, C,,>[C,,C,A,=G] [D,,D,A,G]>[D,,D,A,F] [D,,D,A,F]>[D,,D,E,] | %16
[M:3/4] [E,,E,]>[E,,E,] [E,,E,]>[E,,E,] [A,,,A,,]2 |] %17
V:3
 x8 | x8 | x8 | x8 | x8 | x8 | x8 | x8 | A,2 z2 z4 | %9
 (3z[K:bass] A,,A,, z z/[K:treble] [CEA]/ [CEA]>[A,CE] [A,CE]2 | %10
 (3z A,A, z z/ [EAc]/ [EAc]>[CEA] [CEA]2 | (3z[K:bass] E,E, z z/[K:treble] e/ e>[EGB] [EGB]>[CFA] | %12
 z4[K:bass] z2 (3D,C,B,, | (3z A,,A,, z z/[K:treble] [CEA]/ [CEA]>[A,CE] [A,CE]2 | %14
 (3z A,A, z z/ [EAc]/ [EAc]>[CEA] [CEA]2 | [A,=Ge]4[K:bass][K:treble] z4 |[M:3/4] x6 |] %17
V:4
 x8 | x8 | x8 | x8 | x8 | x8 | x6[K:treble] x2 | x4[K:bass] x4 | A,,4 z4 | x8 | x8 | x8 | x8 | x8 | %14
 x8 | x8 |[M:3/4] x6 |] %17
V:5
 x8 | x8 | x8 | x8 | x8 | x8 | x8 | x8 | x8 | z2[K:bass] A,,2[K:treble] z4 | z2 A,2 z4 | %11
 z2[K:bass] E,2[K:treble] z4 | x4[K:bass] x4 | z2 A,,2[K:treble] z4 | z2 A,2 z4 | %15
 z2[K:bass] C,2[K:treble] z4 |[M:3/4] x6 |] %17

